X: 10392
Q: "Slow."
M: C
L: 1/8
K: G
c2B2 A2BG | d4 :: A2B2 |\
(AF)D2 c2B2 | (AF)D2 d3c |\
e2d2 e3d | {d}c2B2 A3(B/c/) |\
(de) (cA) G2 {B}A>G | G4 :|


